lib/functional/commerce/hamburger.svg

<svg xmlns="http://www.w3.org/2000/svg" fill="none" stroke="currentColor" aria-hidden="true" viewBox="0 0 32 32"><g id="Icon-Hamburger"><g clip-path="url(#clip0_12_6186)"><g id="size=md (32px)"><g id="Hamburger"><path id="Vector" stroke-linecap="round" stroke-linejoin="round" stroke-width="2" d="M6.0994 12C5.95022 11.9997 5.803 11.966 5.66853 11.9014C5.53406 11.8368 5.41575 11.7429 5.32226 11.6267C5.22878 11.5104 5.16249 11.3747 5.12825 11.2295C5.09402 11.0843 5.0927 10.9333 5.1244 10.7875C5.9244 6.9375 10.4869 4 15.9994 4C21.5119 4 26.0744 6.9375 26.8744 10.7875C26.9061 10.9333 26.9048 11.0843 26.8706 11.2295C26.8363 11.3747 26.77 11.5104 26.6765 11.6267C26.5831 11.7429 26.4647 11.8368 26.3303 11.9014C26.1958 11.966 26.0486 11.9997 25.8994 12H6.0994Z"/><path id="Vector_2" stroke-linecap="round" stroke-linejoin="round" stroke-width="2" d="M26 21V23C26 24.0609 25.5786 25.0783 24.8284 25.8284C24.0783 26.5786 23.0609 27 22 27H10C8.93913 27 7.92172 26.5786 7.17157 25.8284C6.42143 25.0783 6 24.0609 6 23V21"/><path id="Vector_3" stroke-linecap="round" stroke-linejoin="round" stroke-width="2" d="M3.5 22L8.5 20L13.5 22L18.5 20L23.5 22L28.5 20"/><path id="Vector_4" stroke-linecap="round" stroke-linejoin="round" stroke-width="2" d="M3 16H29"/></g></g></g></g><defs><clipPath id="clip0_12_6186"><rect width="32" height="32" fill="white" rx="5"/></clipPath></defs></svg>

<svg xmlns="http://www.w3.org/2000/svg" fill="none" stroke="currentColor" aria-hidden="true" viewBox="0 0 32 32"><g stroke="#101828" stroke-linecap="round" stroke-linejoin="round" stroke-width="2" clip-path="url(#a)"><path d="M6.1 12a1 1 0 0 1-.976-1.213C5.924 6.938 10.487 4 16 4c5.513 0 10.075 2.938 10.875 6.787A1 1 0 0 1 25.9 12H6.1ZM26 21v2a4 4 0 0 1-4 4H10a4 4 0 0 1-4-4v-2"/><path d="m3.5 22 5-2 5 2 5-2 5 2 5-2M3 16h26"/></g><defs><clipPath id="a"><rect width="32" height="32" fill="#fff" rx="5"/></clipPath></defs></svg>
